logos/loft-labs-member.svg

<svg xmlns="http://www.w3.org/2000/svg" role="img" viewBox="-2.53 -2.41 177.19 131.69"><title>Loft Labs (member) logo</title><mask id="a" width="172" height="127" x="0" y="0" maskUnits="userSpaceOnUse"><path fill="#C4C4C4" d="M0 0H171.938V127H0z"/></mask><g mask="url(#a)"><path fill="#00BDFF" d="M24.5644 85.0221C20.1397 84.9534 14.3874 84.706 11.5964 83.8131 8.87347 82.9202 6.69511 81.6838 5.06135 80.1041 3.49565 78.4556 2.40647 76.4981 1.79381 74.2315 1.24922 71.8962.976929 69.2862.976929 66.4014V11.344L16.1914 3.09338V63.3106C16.1914 64.6843 16.2935 65.9206 16.4977 67.0196 16.7019 68.1185 17.0763 69.0458 17.6209 69.8013 18.2336 70.5568 19.0845 71.175 20.1737 71.6558 21.2629 72.1366 22.4212 72.0806 24.5644 72.0806V85.0221zM118.875 2.91467C121.734 2.91467 124.355 3.22376 126.737 3.84192 129.12 4.3914 129.643 4.99149 129.643 4.99149V17.6974C128.281 17.0792 126.431 16.686 124.797 16.4113 123.231 16.0679 121.768 15.8961 120.406 15.8961 118.568 15.8961 117.003 16.1709 115.709 16.7204 114.484 17.2012 113.497 17.888 112.748 18.7809 112.067 19.6738 111.557 20.7384 111.216 21.9748 110.944 23.2111 110.808 24.5505 110.808 25.9928V28.6716H129.596V41.447H110.808V85.2555H95.5936V25.7868C95.5936 18.7809 97.5337 13.2174 101.414 9.09633 105.362 4.97522 111.182 2.91467 118.875 2.91467zM137.877 23.4728L153.091 15.1938V30.0327H171.36V42.8081H153.091V61.8682C153.091 65.0964 153.636 67.6721 154.725 69.5953 155.882 71.5184 158.163 72.48 161.566 72.48 163.2 72.48 164.868 72.3427 166.57 72.0679 168.34 71.7245 169.93 71.2809 171.36 70.7315V83.2099C169.576 84.0349 169.633 84.0878 167.387 84.6373 165.14 85.1868 162.383 85.4615 159.116 85.4615 154.963 85.4615 151.525 84.912 148.802 83.8131 146.08 82.6454 143.901 81.0657 142.267 79.0738 140.634 77.0132 139.476 74.5406 138.796 71.6558 138.183 68.771 137.877 65.5772 137.877 62.0743V23.4728zM.976929 100.279L84.4533 100.268V126.014H.976929V100.279zM32.0629 58.0067C32.0629 52.8943 33.2317 48.3162 35.5691 44.2721 37.9819 40.228 41.3371 37.0615 45.6349 34.7724 49.9327 32.407 54.8713 31.2242 60.4508 31.2242 66.1058 31.2242 71.0068 32.407 75.1537 34.7724 79.3007 37.0615 82.4676 40.228 84.6542 44.2721 86.9162 48.3162 88.0472 52.8943 88.0472 58.0067 88.0472 63.119 86.9162 67.7354 84.6542 71.8557 82.4676 75.8998 79.3007 79.1045 75.1537 81.4699 71.0068 83.8353 66.0305 85.018 60.2248 85.018 54.796 85.018 49.9327 83.9498 45.6349 81.8133 41.4125 79.6768 38.0949 76.5865 35.6821 72.5424 33.2693 68.4984 32.0629 63.6531 32.0629 58.0067zM48.01 58.1211C48.01 62.0889 49.141 65.4081 51.403 68.0787 53.6649 70.673 56.5302 71.9702 59.9985 71.9702 63.6931 71.9702 66.6336 70.673 68.8202 68.0787 71.0068 65.4081 72.1001 62.0889 72.1001 58.1211 72.1001 54.1534 71.0068 50.8723 68.8202 48.278 66.6336 45.6074 63.6931 44.2721 59.9985 44.2721 56.5302 44.2721 53.6649 45.6074 51.403 48.278 49.141 50.8723 48.01 54.1534 48.01 58.1211z"/><path fill="#263544" d="M112.333 120.614V126.014H95.5911V100.216H101.232V120.614H112.333zM123.296 121.708C123.826 121.708 124.332 121.696 124.815 121.672 125.297 121.647 125.682 121.611 125.972 121.562V117.439C125.755 117.39 125.429 117.342 124.995 117.293 124.561 117.244 124.164 117.22 123.802 117.22 123.296 117.22 122.814 117.256 122.356 117.329 121.922 117.378 121.536 117.488 121.199 117.658 120.861 117.828 120.596 118.059 120.403 118.351 120.21 118.643 120.114 119.008 120.114 119.446 120.114 120.297 120.391 120.893 120.946 121.234 121.524 121.55 122.308 121.708 123.296 121.708zM122.862 105.799C124.453 105.799 125.779 105.981 126.839 106.346 127.9 106.711 128.744 107.234 129.371 107.915 130.021 108.596 130.479 109.423 130.745 110.396 131.01 111.369 131.142 112.452 131.142 113.644V126.014C130.292 126.014 129.974 126.014 127.904 126.014 125.198 126.014 124.887 126.014 122.934 126.014 121.705 126.014 120.584 125.795 119.572 125.576 118.583 125.357 117.727 125.005 117.004 124.518 116.281 124.007 115.727 123.35 115.341 122.548 114.955 121.745 114.762 120.76 114.762 119.592 114.762 118.473 114.979 117.524 115.413 116.746 115.871 115.967 116.474 115.347 117.221 114.885 117.968 114.422 118.824 114.094 119.788 113.899 120.753 113.68 121.753 113.571 122.79 113.571 123.489 113.571 124.103 113.607 124.634 113.68 125.188 113.729 125.634 113.802 125.972 113.899V113.389C125.972 112.464 125.694 111.722 125.14 111.163 124.586 110.603 123.621 110.323 122.247 110.323 121.331 110.323 120.427 110.396 119.535 110.542 118.643 110.664 117.872 110.846 117.221 111.09L116.534 106.711C116.848 106.614 117.233 106.516 117.691 106.419 118.173 106.297 118.692 106.2 119.246 106.127 119.801 106.03 120.379 105.957 120.982 105.908 121.608 105.835 122.235 105.799 122.862 105.799zM148.2 115.76C148.2 112.257 146.922 110.506 144.367 110.506 143.813 110.506 143.258 110.579 142.704 110.725 142.173 110.871 141.739 111.053 141.402 111.272V121.343C141.653 121.343 141.654 121.343 142.39 121.343 142.867 121.343 143.499 121.343 143.981 121.343 145.452 121.343 146.332 120.832 147.079 119.811 147.826 118.789 148.2 117.439 148.2 115.76zM153.696 115.906C153.696 117.439 153.467 118.826 153.009 120.066 152.575 121.307 151.936 122.365 151.093 123.241 150.249 124.117 149.212 124.798 147.983 125.284 146.753 125.746 145.389 126.014 143.822 126.014 143.171 126.014 142.708 126.014 141.753 126.014 140.957 126.014 140.957 126.014 140.002 126.014 139.047 126.014 139.577 126.014 138.251 126.014 137.614 126.014 136.868 126.014 136.022 126.014L136.014 100.216 141.402 100.216V106.747C142.005 106.48 142.631 106.273 143.282 106.127 143.933 105.981 144.632 105.908 145.379 105.908 146.729 105.908 147.923 106.151 148.959 106.638 149.996 107.1 150.864 107.769 151.563 108.645 152.262 109.521 152.792 110.579 153.154 111.819 153.515 113.036 153.696 114.398 153.696 115.906zM163.297 121.599C164.285 121.599 164.984 121.501 165.394 121.307 165.804 121.112 166.009 120.735 166.009 120.176 166.009 119.738 165.743 119.361 165.213 119.044 164.683 118.704 163.875 118.327 162.791 117.913 161.947 117.597 161.175 117.269 160.476 116.928 159.801 116.587 159.223 116.186 158.741 115.724 158.259 115.237 157.885 114.666 157.62 114.009 157.355 113.352 157.222 112.561 157.222 111.637 157.222 109.837 157.885 108.414 159.211 107.368 160.537 106.322 162.357 105.799 164.671 105.799 165.828 105.799 166.937 105.908 167.997 106.127 169.058 106.322 169.902 106.541 170.529 106.784L169.588 111.017C168.962 110.798 168.275 110.603 167.527 110.433 166.804 110.263 165.985 110.177 165.069 110.177 163.381 110.177 162.537 110.652 162.537 111.601 162.537 111.819 162.574 112.014 162.646 112.184 162.718 112.355 162.863 112.525 163.08 112.695 163.297 112.841 163.586 113.011 163.948 113.206 164.333 113.376 164.815 113.571 165.394 113.79 166.575 114.228 167.551 114.666 168.323 115.104 169.094 115.517 169.697 115.979 170.131 116.49 170.589 116.977 170.902 117.524 171.071 118.132 171.264 118.74 171.36 119.446 171.36 120.249 171.36 122.146 170.649 123.581 169.227 124.554 167.829 125.528 165.84 126.014 163.261 126.014 161.573 126.014 160.163 125.868 159.03 125.576 157.921 125.284 157.15 125.041 156.716 124.846L157.62 120.431C158.536 120.796 159.476 121.088 160.44 121.307 161.404 121.501 162.357 121.599 163.297 121.599z"/><path fill="#00BDFF" fill-rule="evenodd" d="M60.0482 1.02408L33.0442 16.1338V31.2435L60.0482 16.1338L87.0522 31.2435L87.0522 16.1338L60.0482 1.02408Z" clip-rule="evenodd"/></g></svg>

<svg xmlns="http://www.w3.org/2000/svg" viewBox="-2.53 -2.41 177.19 131.69">
	<mask id="a" width="172" height="127" x="0" y="0" maskUnits="userSpaceOnUse">
		<path fill="#C4C4C4" d="M0 0h171.938v127H0z"/>
	</mask>
	<g mask="url(#a)">
		<path fill="#00BDFF" d="M24.564 85.022c-4.424-.069-10.177-.316-12.968-1.209-2.723-.893-4.9-2.13-6.535-3.709-1.565-1.648-2.655-3.606-3.267-5.873-.545-2.335-.817-4.945-.817-7.83V11.344l15.214-8.25V63.31c0 1.373.103 2.61.307 3.709.204 1.099.578 2.026 1.123 2.781.613.756 1.463 1.374 2.553 1.855 1.089.48 2.247.425 4.39.425v12.941zm94.311-82.107c2.859 0 5.48.309 7.862.927 2.383.55 2.906 1.15 2.906 1.15v12.705c-1.362-.618-3.212-1.011-4.846-1.286-1.566-.343-3.029-.515-4.391-.515-1.838 0-3.403.275-4.697.824-1.225.481-2.212 1.168-2.961 2.06-.681.894-1.191 1.958-1.532 3.195-.272 1.236-.408 2.575-.408 4.018v2.679h18.788v12.775h-18.788v43.808H95.594V25.787c0-7.006 1.94-12.57 5.82-16.69 3.948-4.122 9.768-6.182 17.461-6.182zm19.002 20.558 15.214-8.28v14.84h18.269v12.775h-18.269v19.06c0 3.228.545 5.804 1.634 7.727 1.157 1.923 3.438 2.885 6.841 2.885 1.634 0 3.302-.137 5.004-.412 1.77-.343 3.36-.787 4.79-1.337V83.21c-1.784.825-1.727.878-3.973 1.427-2.247.55-5.004.825-8.271.825-4.153 0-7.591-.55-10.314-1.649-2.722-1.168-4.901-2.747-6.535-4.74-1.633-2.06-2.791-4.532-3.471-7.417-.613-2.885-.919-6.079-.919-9.582V23.473zM.977 100.279l83.476-.011v25.746H.977v-25.735zm31.086-42.272c0-5.113 1.169-9.69 3.506-13.735 2.413-4.044 5.768-7.21 10.066-9.5 4.298-2.365 9.236-3.548 14.816-3.548 5.655 0 10.556 1.183 14.703 3.548 4.147 2.29 7.314 5.456 9.5 9.5 2.262 4.044 3.393 8.622 3.393 13.735 0 5.112-1.13 9.728-3.393 13.849-2.186 4.044-5.353 7.249-9.5 9.614-4.147 2.365-9.123 3.548-14.93 3.548-5.428 0-10.291-1.068-14.59-3.205-4.221-2.136-7.54-5.227-9.952-9.27-2.413-4.045-3.62-8.89-3.62-14.536zm15.947.114c0 3.968 1.131 7.287 3.393 9.958 2.262 2.594 5.127 3.891 8.596 3.891 3.694 0 6.635-1.297 8.821-3.891 2.187-2.67 3.28-5.99 3.28-9.958s-1.093-7.249-3.28-9.843c-2.186-2.67-5.127-4.006-8.821-4.006-3.469 0-6.334 1.335-8.596 4.006-2.262 2.594-3.393 5.875-3.393 9.843z"/>
		<path fill="#263544" d="M112.333 120.614v5.4H95.591v-25.798h5.641v20.398h11.101zm10.963 1.094c.53 0 1.036-.012 1.519-.036.482-.025.867-.061 1.157-.11v-4.123a9.88 9.88 0 0 0-.977-.146 10.683 10.683 0 0 0-1.193-.073c-.506 0-.988.036-1.446.109-.434.049-.82.159-1.157.329-.338.17-.603.401-.796.693-.193.292-.289.657-.289 1.095 0 .851.277 1.447.832 1.788.578.316 1.362.474 2.35.474zm-.434-15.909c1.591 0 2.917.182 3.977.547 1.061.365 1.905.888 2.532 1.569.65.681 1.108 1.508 1.374 2.481.265.973.397 2.056.397 3.248v12.37h-8.208c-1.229 0-2.35-.219-3.362-.438-.989-.219-1.845-.571-2.568-1.058a5.06 5.06 0 0 1-1.663-1.97c-.386-.803-.579-1.788-.579-2.956 0-1.119.217-2.068.651-2.846a5.321 5.321 0 0 1 1.808-1.861c.747-.463 1.603-.791 2.567-.986a13.52 13.52 0 0 1 3.002-.328c.699 0 1.313.036 1.844.109.554.049 1 .122 1.338.219v-.51c0-.925-.278-1.667-.832-2.226-.554-.56-1.519-.84-2.893-.84-.916 0-1.82.073-2.712.219-.892.122-1.663.304-2.314.548l-.687-4.379c.314-.097.699-.195 1.157-.292a13.58 13.58 0 0 1 1.555-.292c.555-.097 1.133-.17 1.736-.219a16.221 16.221 0 0 1 1.88-.109zm25.338 9.961c0-3.503-1.278-5.254-3.833-5.254-.554 0-1.109.073-1.663.219-.531.146-.965.328-1.302.547v10.071H143.981c1.471 0 2.351-.511 3.098-1.532.747-1.022 1.121-2.372 1.121-4.051zm5.496.146c0 1.533-.229 2.92-.687 4.16-.434 1.241-1.073 2.299-1.916 3.175-.844.876-1.881 1.557-3.11 2.043-1.23.462-2.594.73-4.161.73h-7.8l-.008-25.798h5.388v6.531a10.077 10.077 0 0 1 1.88-.62 9.57 9.57 0 0 1 2.097-.219c1.35 0 2.544.243 3.58.73a6.844 6.844 0 0 1 2.604 2.007c.699.876 1.229 1.934 1.591 3.174.361 1.217.542 2.579.542 4.087zm9.601 5.693c.988 0 1.687-.098 2.097-.292.41-.195.615-.572.615-1.131 0-.438-.266-.815-.796-1.132-.53-.34-1.338-.717-2.422-1.131a26.426 26.426 0 0 1-2.315-.985 7.13 7.13 0 0 1-1.735-1.204 5.146 5.146 0 0 1-1.121-1.715c-.265-.657-.398-1.448-.398-2.372 0-1.8.663-3.223 1.989-4.269 1.326-1.046 3.146-1.569 5.46-1.569 1.157 0 2.266.109 3.326.328 1.061.195 1.905.414 2.532.657l-.941 4.233a19.014 19.014 0 0 0-2.061-.584c-.723-.17-1.542-.256-2.458-.256-1.688 0-2.532.475-2.532 1.424 0 .218.037.413.109.583.072.171.217.341.434.511.217.146.506.316.868.511.385.17.867.365 1.446.584 1.181.438 2.157.876 2.929 1.314.771.413 1.374.875 1.808 1.386.458.487.771 1.034.94 1.642.193.608.289 1.314.289 2.117 0 1.897-.711 3.332-2.133 4.305-1.398.974-3.387 1.46-5.966 1.46-1.688 0-3.098-.146-4.231-.438-1.109-.292-1.88-.535-2.314-.73l.904-4.415c.916.365 1.856.657 2.82.876.964.194 1.917.292 2.857.292z"/>
		<path fill="#00BDFF" fill-rule="evenodd" d="m60.048 1.024-27.004 15.11v15.11l27.004-15.11 27.004 15.11v-15.11L60.048 1.024Z" clip-rule="evenodd"/>
	</g>
</svg>
